src/svgs/calculator.svg

<svg xmlns="http://www.w3.org/2000/svg" viewBox="0 0 24 24" width="512" height="512"><path d="M18 2H6a2 2 0 00-2 2v16a2 2 0 002 2h12a2 2 0 002-2V4a2 2 0 00-2-2zm0 6H6V4h12zM8 12H6v-2h2zm5 0h-2v-2h2zm5 0h-2v-2h2zM8 16H6v-2h2zm5 0h-2v-2h2zm5 0h-2v-2h2zM8 20H6v-2h2zm5 0h-2v-2h2zm5 0h-2v-2h2z"/></svg>

<svg xmlns="http://www.w3.org/2000/svg" viewBox="0 0 24 24"><path d="M18,2H6A2,2,0,0,0,4,4V20a2,2,0,0,0,2,2H18a2,2,0,0,0,2-2V4A2,2,0,0,0,18,2Zm0,6H6V4H18ZM8,12H6V10H8Zm5,0H11V10h2Zm5,0H16V10h2ZM8,16H6V14H8Zm5,0H11V14h2Zm5,0H16V14h2ZM8,20H6V18H8Zm5,0H11V18h2Zm5,0H16V18h2Z"/></svg>
